X:640
T:Dash to Portobello, The
T:Port Gael-Linn
T:Sean Ryan's Reel
C:Sean Ryan
R:reel
Z:id:hn-reel-640
M:C|
K:Edor
BEED EDB,C|D2FE DA,~A,2|B,EED EFGA|(3Bcd eB dBAd|
BEED EDB,C|DEFE DA,~A,2|B,EED EFGA|BGAF GEE2:|
|:g2eg bgeg|f2df afdf|g2eg bgeg|fedc Be~e2|
~g3a bgag|fd~d2 Adfa|~g3a agag|1 fedc Bdef:|2 fedc Bded||
